assets/assets/svgs/github_icon.svg

<svg width="24" height="24" viewBox="0 0 24 24" fill="none" xmlns="http://www.w3.org/2000/svg">
<path d="M12.001 2.50065C6.47764 2.50065 2 6.86205 2 12.242C2 16.5196 4.83104 20.1541 8.76782 21.4631L8.83851 21.4832C9.33869 21.5748 9.52209 21.274 9.52209 21.0148C9.52209 20.7836 9.51409 20.1704 9.50942 19.359C6.72773 19.9469 6.14085 18.052 6.14085 18.052C5.94878 17.4511 5.5553 16.9574 5.03845 16.6333L5.02778 16.6275C4.12211 16.0233 5.0978 16.0357 5.0978 16.0357C5.75604 16.126 6.30758 16.5021 6.62436 17.0296L6.6297 17.0393C6.99917 17.6856 7.69676 18.1157 8.49772 18.1157C8.88186 18.1157 9.24199 18.0169 9.55277 17.8435L9.5421 17.8487C9.59012 17.3349 9.82287 16.8814 10.175 16.5463L10.1757 16.5456C7.95485 16.302 5.61999 15.464 5.61999 11.7321C5.61999 11.7145 5.61933 11.6944 5.61933 11.6743C5.61933 10.6862 6.0108 9.78719 6.65104 9.11615L6.64904 9.11875C6.51365 8.76667 6.43496 8.36002 6.43496 7.93583C6.43496 7.4311 6.54567 6.95104 6.74507 6.51841L6.73574 6.5405C6.73574 6.5405 7.57338 6.27936 9.48608 7.53893C10.2357 7.33041 11.0967 7.21023 11.9863 7.21023C12.876 7.21023 13.737 7.33041 14.5533 7.55452L14.4866 7.53893C16.3866 6.27936 17.2242 6.5405 17.2242 6.5405C17.4143 6.95754 17.525 7.44344 17.525 7.95467C17.525 8.37171 17.4517 8.77187 17.3163 9.14344L17.3243 9.11875C17.9599 9.78914 18.35 10.6882 18.35 11.6762C18.35 11.6964 18.35 11.7158 18.3493 11.7353V11.7321C18.3493 15.4744 16.0118 16.2981 13.7863 16.5378C14.2078 16.9581 14.4679 17.533 14.4679 18.1676C14.4679 18.2281 14.4652 18.2885 14.4606 18.3482L14.4612 18.3404C14.4612 19.6442 14.4486 20.6913 14.4486 21.0077C14.4486 21.2636 14.6233 21.5676 15.1361 21.4702C19.1563 20.1522 22 16.5144 22 12.229C22 6.85555 17.5277 2.5 12.0117 2.5C12.0077 2.5 12.003 2.5 11.999 2.5H11.9997L12.001 2.50065Z" fill="#2D9CDB"/>
</svg>

<svg xmlns="http://www.w3.org/2000/svg" width="24" height="24" fill="none" xmlns:v="https://vecta.io/nano"><path d="M12.001 2.501C6.478 2.501 2 6.862 2 12.242c0 4.278 2.831 7.912 6.768 9.221l.071.02c.5.092.684-.209.684-.468l-.013-1.656c-2.782.588-3.369-1.307-3.369-1.307-.192-.601-.586-1.095-1.102-1.419l-.011-.006c-.906-.604.07-.592.07-.592.658.09 1.21.466 1.527.994l.005.01c.369.646 1.067 1.076 1.868 1.076a2.16 2.16 0 0 0 1.055-.272l-.011.005c.048-.514.281-.967.633-1.302h.001c-2.221-.244-4.556-1.082-4.556-4.813l-.001-.058c0-.988.391-1.887 1.032-2.558l-.002.003c-.135-.352-.214-.759-.214-1.183 0-.505.111-.985.31-1.417l-.009.022s.838-.261 2.75.998c.75-.209 1.611-.329 2.5-.329s1.751.12 2.567.344l-.067-.016c1.9-1.26 2.738-.998 2.738-.998.19.417.301.903.301 1.414 0 .417-.073.817-.209 1.189l.008-.025c.636.67 1.026 1.569 1.026 2.557l-.001.059v-.003c0 3.742-2.337 4.566-4.563 4.806.422.42.682.995.682 1.63 0 .061-.003.121-.007.181v-.008l-.013 2.667c0 .256.175.56.688.462C19.156 20.152 22 16.514 22 12.229 22 6.856 17.528 2.5 12.012 2.5H12l.001.001z" fill="#2d9cdb"/></svg>
